X:7706
T:Trumpet Hornpipe
C:trad. Engeland
O:England
M:6/8
L:1/8
Q:1/4=156
K:Eb
V:1
HB3  |:EE EE3 |EE EE2 (B|G2 EG2 B)|
(e2 BG2 E)|B, B,B, B,3 |B,B, B,B,2 (F|D2 B,D2 F)|
(G2 FD2 B,)|E EE E3 |EE EE2 (B|G2 EG2 B)|
e3 e3 |(d2 fe2 d)|(c2 ed2 c)|B3 B3 |
B3 B3 |ee ee3 |ee ee2 (e|c2 de2 d|
c2 BG2 G|G2 Bc2 B|G2 GF2 E|D2 EF2 E|
D2 B,C2 D)|E EE E3 |^C^C ^C^C3 |CC CC3 |
=B,=B, =B,=B,3 |B,z (ed2 c|B2 GG2 F)|.E2 z(^F/4.G/4)z |
E3 :| |:(D2 C)|(B,2 FD2 F)|(B,2 FD2 F)|
(B2 cd2 c|B2 =AG2 F)|(c2 F)(d2 F)|(e2 F)(d2 F)|
(c dc B=A G)|(F GF ED C)|(B,2 FD2 F)|(B,2 FD2 F)|
(B2 cd2 c|B2 =AG2 F)|(c2 F)(d2 F)|(e2 c=A2 c)|
B3 d3 |B3 (=A2 B)|c2 FF FF |d2 FF FF |
e2 FF FF |d2 FF FF |(c2 F)(d2 F)|(e2 F)(d2 F)|
(c2 B=A2 G|F2 ED2 C)|(B,2 FD2 F)|(B,2 FD2 F)|
(B2 cd2 c|B2 =AG2 F)|(c2 F)(d2 F)|(e2 c=A2 c)|
B3 d3 |B3 :|D3 |EE EE3 |
EE EE2 (B|G2 EG2 B)|(e2 BG2 E)|B, B,B, B,3 |
B,B, B,B,2 (F|D2 B,D2 F)|(G2 FD2 B,)|E EE E3 |
EE EE2 (B|G2 EG2 B)|e3 e3 |(d2 fe2 d)|
(c2 ed2 c)|B3 B3 |B3 B3 |ee ee3 |
ee ee2 (e|c2 de2 d|c2 BG2 G|G2 Bc2 B|
G2 GF2 E|D2 EF2 E|D2 B,C2 D)|E EE E3 |
^C^C ^C^C3 |CC CC3 |=B,=B, =B,=B,3 |B,z (ed2 c|
B2 GG2 F)|.E2 z(^F/4.G/4)z |E3 |]
V:2          %nieuw
"Bb7" HD3  |:"Gb" G3 B,3 |G,3 B,3 |z2 (B,E2 G|
E2 B,G,2 =A,)|"Db" D3 F,3 |D,3 F,3 |z2 (DF2 G)|
"Db7" (c2 GF2 D)|"Gb" G3 B,3 |G,3 B,3 |z2 (B,E2 G)|
B3 G3 |"Db" B3 (c2 B)|"Ab7" (=A2 cB2 =A)|"Db" B3 "Db7" G3 |
"Gb" G3 "Db7" F3 |"Gb" (E2 GB3) |(G2 B"Gb7" ^c2) (B|"Cb" G2 Bc2 B|
G2 G"Eb7" F2 =E|"Abm" F2 GG2 G|"Abm7" F2 ED2 C|"Db" B,2 CD2 C|
B,2 G,G,2 F,)|"Gb" E,3 (E3 |"Gb7" (E6) |"Cb" (E6) |
"Cbm" (E6) |"Db7" E)z (ED2 C|B,2 G,G,2 F,)|"Gb" .G,2 z(d/4.e/4)z |
G,3 :| |:"Ab7" (F,2 E,)|"Db" D,3 z3 |(F,/4=E,/4(F,/)F,2) z3 |
F,3 B,3 |D3 B,3 |"Ab7" (=A,/4B,/4(=A,/)=A,2) "Db" B,3 |"Ab" C3 "Db" B,3 |
"Ab" E3 "Eb7" =E3 |"Ab7" =A,3 z3 |"Db" D,3 z3 |(F,/4=E,/4(F,/)F,2) z3 |
F,3 B,3 |D3 B,3 |"Ab" =A,3 F3 |"Ab7" =A3 E3 |
"Db" (DE D)(F GF) |(B,C DE FG) |"Ab" =A2 C(=A, C)C |"Db" B2 DD DD |
"Ab7" =A2 EE EE |"Db" B2 D(D ED) |"Ab" (=A2 C)"Db" (B2 D)|"Ab" (c2 D)"Db" (B2 D)|
"Ab" F2 z(F,2 =E,|F,2) (F,G,2 =A,)|"Db" (B,/4=A,/4(B,/) B,2) F,3 |(B,/4=A,/4(B,/)B,2) F,3 |
(D2 EF2 E|D2 B,)"Eb7" (=E2 C)|"Ab" (=A2 F)"Db" (B2 =A)|"Ab7" (c2 =AF2 E)|
"Db" D3 F3 |D3 :|"Db7" D3 |"Gb" G3 B,3 |
G,3 B,3 |z2 (B,E2 G|E2 B,G,2 =A,)|"Db" D3 F,3 |
D,3 F,3 |z2 (DF2 G)|"Db7" (c2 GF2 D)|"Gb" G3 B,3 |
G,3 B,3 |z2 (B,E2 G)|B3 G3 |"Db" B3 (c2 B)|
"Ab7" (=A2 cB2 =A)|"Db" B3 "Db7" G3 |"Gb" G3 "Db7" F3 |"Gb" (E2 GB3) |
(G2 B"Gb7" ^c2) (B|"Cb" G2 Bc2 B|G2 G"Eb7" F2 =E|"Abm" F2 GG2 G|
"Abm7" F2 ED2 C|"Db" B,2 CD2 C|B,2 G,G,2 F,)|"Gb" E,3 (E3 |
"Gb7" (E6) |"Cb" (E6) |"Cbm" (E6) |"Db7" E)z (ED2 C|
B,2 G,G,2 F,)|"Gb" .G,2 z(d/4.e/4)z |G,3 |]
V:3          %nieuw  (akk)
"Bb7" [HB,3D3 F3 G3] |:z2 "Eb" [EG B,]z2 [EG B,]|z2 [EG B,]z2 [EG B,]|z2 [EG B,]z2 [EG B,]|
z2 [EG B,]z2 [EG B,]|z2 "Bb" [B,D F]z2 [B,D F]|z2 [B,D F]z2 [B,D F]|z2 [B,D F]z2 [B,D F]|
z2 "Bb7" [B,D FG]z2 [B,D FG]|z2 "Eb" [EG B,]z2 [EG B,]|z2 [EG B,]z2 [EG B,]|z2 [EG B,]z2 [EG B,]|
z2 [EG B,]z2 [EG B,]|z2 "Bb" [B,D F]z2 [B,D F]|z2 "F7" [F=A, CE]z2 [F=A, CE]|z2 "Bb" [B,D F]z2 "Bb7" [B,D FG]|
z2 "Eb" [EG B,]z2 "Bb7" [B,D FG]|z2 "Eb" [EG B,]z2 [EG B,]|z2 [EG B,]z2 "Eb7" [EG B,^C]|z2 "Ab" [GC E]z2 [GC E]|
z2 [GC E]z2 "C7" [C=E GB,]|z2 "Fm" [FG C]z2 [FG C]|z2 "Fm7" [FG CE]z2 [FG CE]|z2 "Bb" [B,D F]z2 [B,D F]|
z2 [B,D F]z2 [B,D F]|z2 "Eb" [EG B,]z2 [EG B,]|z2 "Eb7" [EG B,^C]z2 [EG B,^C]|z2 "Ab" [GC E]z2 [GC E]|
z2 "Abm" [G=B, E]z2 [G=B, E]|z2 "Bb7" [B,D FG]z2 [B,D FG]|z2 [B,D FG]z2 [B,D FG]|"Eb" [EG B,]z2 [EG B,]z2 |
z2 [EG B,]:| |:z2 "F7" [F=A, CE]|z2 "Bb" [B,D F]z2 [B,D F]|z2 [B,D F]z2 [B,D F]|
z2 [B,D F]z2 [B,D F]|z2 [B,D F]z2 [B,D F]|z2 "F7" [F=A, CE]z2 "Bb" [B,D F]|z2 "F" [F=A, C]z2 "Bb" [B,D F]|
z2 "F" [F=A, C]z2 "C7" [C=E GB,]|z2 "F7" [F=A, CE]z2 [F=A, CE]|z2 "Bb" [B,D F]z2 [B,D F]|z2 [B,D F]z2 [B,D F]|
z2 [B,D F]z2 [B,D F]|z2 [B,D F]z2 [B,D F]|z2 "F" [F=A, C]z2 [F=A, C]|z2 "F7" [F=A, CE]z2 [F=A, CE]|
z2 "Bb" [B,D F]z2 [B,D F]|z2 [B,D F]z2 [B,D F]|z2 "F" [F=A, C]z2 [F=A, C]|z2 "Bb" [B,D F]z2 [B,D F]|
z2 "F7" [F=A, CE]z2 [F=A, CE]|z2 "Bb" [B,D F]z2 [B,D F]|z2 "F" [F=A, C]z2 "Bb" [B,D F]|z2 "F" [F=A, C]z2 "Bb" [B,D F]|
z2 "F" [F=A, C]z2 [F=A, C]|z2 [F=A, C]z2 [F=A, C]|z2 "Bb" [B,D F]z2 [B,D F]|z2 [B,D F]z2 [B,D F]|
z2 [B,D F]z2 [B,D F]|z2 [B,D F]z2 "C7" [C=E GB,]|z2 "F" [F=A, C]z2 "Bb" [B,D F]|z2 "F7" [F=A, CE]z2 [F=A, CE]|
z2 "Bb" [B,D F]z2 [B,D F]|z2 [B,D F]:|z2 "Bb7" [B,D FG]|z2 "Eb" [EG B,]z2 [EG B,]|
z2 [EG B,]z2 [EG B,]|z2 [EG B,]z2 [EG B,]|z2 [EG B,]z2 [EG B,]|z2 "Bb" [B,D F]z2 [B,D F]|
z2 [B,D F]z2 [B,D F]|z2 [B,D F]z2 [B,D F]|z2 "Bb7" [B,D FG]z2 [B,D FG]|z2 "Eb" [EG B,]z2 [EG B,]|
z2 [EG B,]z2 [EG B,]|z2 [EG B,]z2 [EG B,]|z2 [EG B,]z2 [EG B,]|z2 "Bb" [B,D F]z2 [B,D F]|
z2 "F7" [F=A, CE]z2 [F=A, CE]|z2 "Bb" [B,D F]z2 "Bb7" [B,D FG]|z2 "Eb" [EG B,]z2 "Bb7" [B,D FG]|z2 "Eb" [EG B,]z2 [EG B,]|
z2 [EG B,]z2 "Eb7" [EG B,^C]|z2 "Ab" [GC E]z2 [GC E]|z2 [GC E]z2 "C7" [C=E GB,]|z2 "Fm" [FG C]z2 [FG C]|
z2 "Fm7" [FG CE]z2 [FG CE]|z2 "Bb" [B,D F]z2 [B,D F]|z2 [B,D F]z2 [B,D F]|z2 "Eb" [EG B,]z2 [EG B,]|
z2 "Eb7" [EG B,^C]z2 [EG B,^C]|z2 "Ab" [GC E]z2 [GC E]|z2 "Abm" [G=B, E]z2 [G=B, E]|z2 "Bb7" [B,D FG]z2 [B,D FG]|
z2 [B,D FG]z2 [B,D FG]|"Eb" [.E2.G2 .B,2]z[.E2.G2 .B,2]z|[E3G3 B,3]|]
V:4          %nieuw  (bas)
"Bb7" HB,3  |:E,2 "Eb" zB,2 z|E,2 zG,2 z|E,2 zB,2 z|
E,2 zG,2 z|B,2 "Bb" zF,2 z|B,2 zD2 z|B,2 zF,2 z|
B,2 "Bb7" zF,2 z|E,2 "Eb" zB,2 z|E,2 zG,2 z|E,2 zB,2 z|
E,2 zG,2 z|B,2 "Bb" zF,2 z|F,2 "F7" zC,2 z|B,2 "Bb" zB,2 "Bb7" z|
E,2 "Eb" zB,2 "Bb7" z|E,2 "Eb" zB,2 z|E,2 zE,2 "Eb7" z|G,2 "Ab" zE,2 z|
G,2 zC,2 "C7" z|F,2 "Fm" zC,2 z|F,2 "Fm7" zC,2 z|B,2 "Bb" zF,2 z|
B,2 zD2 z|E,2 "Eb" zB,2 z|E,2 "Eb7" zB,2 z|G,2 "Ab" zE,2 z|
G,2 "Abm" zE,2 z|B,2 "Bb7" zF,2 z|B,2 zD2 z|.E,2 "Eb" z.B,2 z|
E,3 :| |:"F7" F,3 |B,2 "Bb" zF,2 z|B,2 zD2 z|
B,2 zF,2 z|B,2 zD2 z|F,2 "F7" zB,2 "Bb" z|F,2 "F" zB,2 "Bb" z|
F,2 "F" zC,2 "C7" z|F,2 "F7" zC,2 z|B,2 "Bb" zF,2 z|B,2 zD2 z|
B,2 zF,2 z|B,2 zD2 z|F,2 "F" zC,2 z|F,2 "F7" zC,2 z|
B,2 "Bb" zF,2 z|B,2 zD2 z|F,2 "F" zC,2 z|B,2 "Bb" zF,2 z|
F,2 "F7" zC,2 z|B,2 "Bb" zF,2 z|F,2 "F" zB,2 "Bb" z|F,2 "F" zB,2 "Bb" z|
F,2 "F" zC,2 z|F,2 z=A,2 z|B,2 "Bb" zF,2 z|B,2 zD2 z|
B,2 zF,2 z|B,2 zC,2 "C7" z|F,2 "F" zB,2 "Bb" z|F,2 "F7" zC,2 z|
"Bb" B,3 F,3 |B,3 :|"Bb7" B,3 |E,2 "Eb" zB,2 z|
E,2 zG,2 z|E,2 zB,2 z|E,2 zG,2 z|B,2 "Bb" zF,2 z|
B,2 zD2 z|B,2 zF,2 z|B,2 "Bb7" zF,2 z|E,2 "Eb" zB,2 z|
E,2 zG,2 z|E,2 zB,2 z|E,2 zG,2 z|B,2 "Bb" zF,2 z|
F,2 "F7" zC,2 z|B,2 "Bb" zB,2 "Bb7" z|E,2 "Eb" zB,2 "Bb7" z|E,2 "Eb" zB,2 z|
E,2 zE,2 "Eb7" z|G,2 "Ab" zE,2 z|G,2 zC,2 "C7" z|F,2 "Fm" zC,2 z|
F,2 "Fm7" zC,2 z|B,2 "Bb" zF,2 z|B,2 zD2 z|E,2 "Eb" zB,2 z|
E,2 "Eb7" zB,2 z|G,2 "Ab" zE,2 z|G,2 "Abm" zE,2 z|B,2 "Bb7" zF,2 z|
B,2 zD2 z|.E,2 "Eb" z.B,2 z|E,3 |]


